material/.icons/material/toaster.svg

<svg xmlns="http://www.w3.org/2000/svg" viewBox="0 0 24 24"><path d="M21 11a2 2 0 00-2-2H5a2 2 0 00-2 2H2v2h1v7h18v-7h1v-2m-5 4a2 2 0 112-2 2 2 0 01-2 2m1-7H6c.33-2.25 2.88-4 6-4s5.63 1.75 6 4z"/></svg>

<?xml version="1.0" encoding="UTF-8"?><!DOCTYPE svg PUBLIC "-//W3C//DTD SVG 1.1//EN" "http://www.w3.org/Graphics/SVG/1.1/DTD/svg11.dtd"><svg xmlns="http://www.w3.org/2000/svg" xmlns:xlink="http://www.w3.org/1999/xlink" version="1.1" id="mdi-toaster" width="24" height="24" viewBox="0 0 24 24"><path d="M21 11A2 2 0 0 0 19 9H5A2 2 0 0 0 3 11H2V13H3V20H21V13H22V11M17 15A2 2 0 1 1 19 13A2 2 0 0 1 17 15M18 8H6C6.33 5.75 8.88 4 12 4S17.63 5.75 18 8Z" /></svg>
